X: 40264
T: To My Dear Departed Friends
R: strathspey
M: 4/4
K: Amajor
E/F/G|A2c<A G2 B<G|F<AF<A E2 E/F/G|A2c<A G2 B<G|A<cB<c A2 E/F/G|
A2c<A G2 B<G|F<AF<A E2 E/F/G|A2c<A G2 B<G|A<cB<c A2 B/c/d||
e2 a<e d2 a<e|c<eB<d c2 B/c/d|e2 a<e d2 a<e|c<eB<c A2 B/c/d|
e2 a<e d2 a<e|c<eB<d c2 B2|A/B/c B/c/d c/d/e d/e/f|e/d/B E/F/G A2z2||

